!!!COM: Mozart, Wolfgang Amadeus
!!!OPR: Quartet in D Major
!!!OTL:
!!!OMV: 1
!!!SCT: K 285
!!!SCA: Chronologisch-thematisches Verzeichnis sämtlicher Tonwerke Wolfgang Amade Mozarts (L. von Köchel; 1862, 2/1905, 3/1937, 1947)
!!!YOR: Breitkopf & Härtel Edition
!!!EED: Frances Bennion
!!!ENC: Frances Bennion
!!!CDT: 1756/1/27/-1791/12/5/
!!!OCY: Österreich
!!!YEC: Copyright (c) 1994, 2000 Center for Computer Assisted Research in the Humanities
!!!YEM: Rights to all derivative editions reserved.
!!!YEM: Refer to licensing agreement for further details.
!!!YEN: United States of America
**kern	**kern	**kern	**kern
*k[f#c#]	*k[f#c#]	*k[f#c#]	*k[f#c#]
*D:	*D:	*D:	*D:
*clefG	*clefG	*clefF	*clefC
*M4/4	*M4/4	*M4/4	*M4/4
*tb48	*tb48	*tb48	*tb48
=1	=1	=1	=1
2aa	8r	8r	4D
.	8f# 8A	8D	.
.	8f# 8A	8D	2.r
.	8f# 8A	8D	.
4..ff#	8f# 8A	8D	.
.	8f# 8A	8D	.
.	8f# 8A	8D	.
.	8f# 8A	8D	.
16gg	.	.	.
=2	=2	=2	=2
8bb	8r	8r	4D
8aa	8f# 8A	8D	.
2aa	8f# 8A	8D	2.r
.	8f# 8A	8D	.
.	8f# 8A	8D	.
.	8f# 8A	8D	.
8ff#	8f# 8A	8D	.
16ee	8f# 8A	8D	.
16dd	.	.	.
=3	=3	=3	=3
8dd	8r	8r	4D
16ee	8g 8B	8D	.
16ff#	.	.	.
16gg	8g 8B	8D	2.r
16aa	.	.	.
16bb	8g 8B	8D	.
16ccc#	.	.	.
16ddd	8g 8B	8D	.
16ccc#	.	.	.
16ddd	8g 8B	8D	.
16ccc#	.	.	.
16ddd	8g 8B	8D	.
16ccc#	.	.	.
16ddd	8g 8B	8D	.
16ccc#	.	.	.
=4	=4	=4	=4
8ddd	4f# 4A	4D	4D
16ccc#	.	.	.
16bb	.	.	.
4aa	2.r	8r	8r
.	.	8a	8A
2r	.	8a	8A
.	.	8f#	8F#
.	.	8f#	8F#
.	.	8d	8D
=5	=5	=5	=5
2aa	8r	4A	4AA
.	8a	.	.
.	8cc#	2.r	2.r
.	8ee	.	.
4.aa	8gg	.	.
.	8ee	.	.
.	8ff#	.	.
8bb	8dd	.	.
=6	=6	=6	=6
8dd	1a	8r	4AA
8cc#	.	8A	.
2cc#	.	8c#	2.r
.	.	8e	.
.	.	8g	.
.	.	8e	.
4dd	.	8f#	.
.	.	8d	.
=7	=7	=7	=7
8ff#	8f#	8d	4A
8ee	8e	8c#	.
8gg	8g	8e	4A
8ff#	8f#	8d	.
8aa	8a	8f#	4A
8gg	8g	8e	.
8ff#	8f#	8d	4A
8ee	8e	8c#	.
=8	=8	=8	=8
8gg	8g	8e	2D
8ff#	8f#	8d	.
8bb	8b	8g	.
8aa	8a	8f#	.
4aa	4a	8f#	8r
.	.	8a	8A
4r	4r	8f#	8F#
.	.	8d	8D
=9	=9	=9	=9
2aa	1A	8r	4AA
.	.	8A	.
.	.	8c#	2.r
.	.	8e	.
4.aa	.	8g	.
.	.	8e	.
.	.	8f#	.
8bb	.	8d	.
=10	=10	=10	=10
8dd	8r	1a	4AA
8cc#	8a	.	.
2ccc#	8cc#	.	2.r
.	8ee	.	.
.	8gg	.	.
.	8ee	.	.
4ddd	8ff#	.	.
.	8dd	.	.
=11	=11	=11	=11
8ddd#	8r	8r	8r
8eee	8cc# 8e	8a 8g	8A
4.eee	8cc# 8e	8a 8g	8A
.	8cc# 8e	8a 8g	8A
.	8cc# 8e	8a 8g	8A
8ccc#	8cc# 8e	8a 8g	8A
8aa	8cc# 8e	8a 8g	8A
8gg	8cc# 8e	8a 8g	8A
=12	=12	=12	=12
8ff#	4dd 4d	8a 8f#	4d
16ee	.	8d	.
16dd	.	.	.
4dd	2r	8f#	4.r
.	.	8d	.
2r	.	4A	.
.	.	.	8d
.	8r	8r	8F#
.	8A	8A	8A
=13	=13	=13	=13
1r	8A	8F#	4D
.	8d	8A	.
.	8f#	8A	2r
.	8f#	8A	.
.	4.f#	4.A	.
.	.	.	4AA
.	16g	16B	.
.	16e	16G	.
=14	=14	=14	=14
1r	8e	8G	4BB
.	8d	8F#	.
.	8d	8F#	4BB
.	8d	8F#	.
.	4.d	8F#	4B
.	.	8d	.
.	.	8c#	4A
.	8d	8c	.
=15	=15	=15	=15
1r	8d	8B	4G
.	8g	8d	.
.	8b	8g	4D
.	8b	8g	.
.	4.b	4.g	4BB
.	.	.	4GG
.	16dd	16b	.
.	16b	16g	.
=16	=16	=16	=16
2..r	8b	8g	4D
.	8a	8f#	.
.	8a	8f#	4r
.	8a	8f#	.
.	2a	4f#	4d
.	.	4e	4c#
8aa	.	.	.
=17	=17	=17	=17
8ddd	8.b	4d	2.B
8bb	.	.	.
.	16cc#	.	.
8gg	8dd	2r	.
8gg	8dd	.	.
4.gg	4dd	.	.
.	4dd	4A	4A
16aa	.	.	.
16ff#	.	.	.
=18	=18	=18	=18
8ff#	2dd	8.B	2G
8ee	.	.	.
.	.	16c#	.
8ee	.	8d	.
8ee	.	8d	.
4.ee	2B	4d	2G#
.	.	4d	.
8ff	.	.	.
=19	=19	=19	=19
16ff#	8A	16d	4A
16aa	.	16f#	.
16gg#	8A	16e#	.
16aa	.	16f#	.
16gg#	8A	16e#	4.r
16aa	.	16f#	.
16gg#	8A	16e#	.
16aa	.	16f#	.
16gg#	4A	16e#	.
16aa	.	16f#	.
16bb	.	16g	8A
16aa	.	16f#	.
8gg	8r	8e	8A
16ff#	8a	16d	8A
16ee	.	16c#	.
=20	=20	=20	=20
8dd	8dd	8d	4B
16ee	8b	8B	.
16ff#	.	.	.
16gg	8g	8B	2.r
16aa	.	.	.
16bb	8g	8B	.
16ccc#	.	.	.
8ddd	4.g	8B	.
8ddd	.	8B	.
8ddd	.	8A	.
8ddd	16a	8A	.
.	16f#	.	.
=21	=21	=21	=21
[1ddd	8f#	8G	1r
.	8e	8G	.
.	8e	8G	.
.	8e	8G	.
.	4.e	8G#	.
.	.	8G#	.
.	.	8G#	.
.	8f	8G#	.
=22	=22	=22	=22
4.ddd]	4.f#	8A	1r
.	.	8A	.
.	.	8A	.
16eee	16g	8A	.
16ddd	16f#	.	.
4ccc#	4e	8A	.
.	.	8A	.
8r	8r	8A	.
8bb	8g	8A	.
=23	=23	=23	=23
4.bb	4.g	[2A	8r
.	.	.	8A
.	.	.	8A
16ccc#	16a	.	8A
16bb	16g	.	.
4aa	4f#	8A]	8A
.	.	8A	8A
8r	8r	8B	8A
8gg	8e	8c#	8A
=24	=24	=24	=24
16ff#	16d	2d	8D
16dd	16f#	.	.
16ee	16g	.	8r
16ff#	16a	.	.
16gg	16b	.	8BB
16aa	16cc#	.	.
16bb	16dd	.	8r
16ccc#	16ee	.	.
16ddd	16ff#	2B	8GG#
16ccc#	16ee	.	.
16ddd	16ff#	.	8r
16ccc#	16ee	.	.
8ddd	8ff#	.	8G#
16r	16r	.	8r
16ff#	16dd	.	.
=25	=25	=25	=25
4ff#	4dd	4A	4A
4ee	4cc#	8r	8r
.	.	8a	8A
2r	2r	8g#	8G#
.	.	8a	8A
.	.	8b	8B
.	.	8cc#	8c#
=26	=26	=26	=26
4ee	8cc#	4a	4A
.	8a	.	.
3ee	8cc#	2.r	2.r
.	8a	.	.
.	8cc#	.	.
12ff#	.	.	.
.	8a	.	.
12gg#	.	.	.
12aa	8cc#	.	.
12bb	.	.	.
.	8a	.	.
12ccc#	.	.	.
=27	=27	=27	=27
4bb	8dd	4.r	4.r
.	8a	.	.
4aa	4cc#	.	.
.	.	8a	8A
2r	2r	8g#	8G#
.	.	8a	8A
.	.	8b	8B
.	.	8cc#	8c#
=28	=28	=28	=28
4ee	8cc#	4a	4A
.	8a	.	.
3ee	8cc#	2.r	2.r
.	8a	.	.
.	8cc#	.	.
12ff#	.	.	.
.	8a	.	.
12gg#	.	.	.
12aa	8cc#	.	.
12bb	.	.	.
.	8a	.	.
12ccc#	.	.	.
=29	=29	=29	=29
4ddd	8b	4.r	4.r
.	8g#	.	.
4ccc#	4a	.	.
.	.	8a	8A
2r	2r	8g#	8G#
.	.	8a	8A
.	.	8b	8B
.	.	8cc#	8c#
=30	=30	=30	=30
4eee	8r	4a	4A
.	8c#	.	.
2eee	8e	8r	4r
.	8a	8c#	.
.	8cc#	4a	4C#
.	8a	.	.
8ddd	8ee	8r	4r
8ccc#	8ee	8a	.
=31	=31	=31	=31
4aa#	8r	4f#	4D
.	8d	.	.
4bb	8f#	8r	4r
.	8b	8d	.
8r	8dd	4f#	4D
8ff#	8b	.	.
8ddd	8ff#	8r	4r
8ccc#	8ff#	8a#	.
=32	=32	=32	=32
8ccc#	8r	4b	4D
8bb	8B	.	.
2bb	8d	8r	4r
.	8f#	8d	.
.	8b	4f#	4D
.	8f#	.	.
4aa	8b	8r	4D#
.	8b	8f#	.
=33	=33	=33	=33
16gg#	8b 8g#	8e	4E
16ff#	.	.	.
16ee	8b 8g#	8e	.
16ff#	.	.	.
16gg#	8b 8g#	8e	2.r
16aa	.	.	.
16bb	8b 8g#	8e	.
16ccc#	.	.	.
16ddd	8b 8g#	8e	.
16ccc#	.	.	.
16bb	8b 8g#	8e	.
16aa	.	.	.
16gg#	8b 8g#	8e	.
16ff#	.	.	.
16ee	8b 8g#	8e	.
16dd	.	.	.
=34	=34	=34	=34
16cc#	8cc# 8a	8e	4r
16ee	.	.	.
16ff#	8cc# 8a	8e	.
16gg#	.	.	.
16aa	8cc# 8a	8e	8e
16bb	.	.	.
16ccc#	8cc# 8a	8e	8r
16ddd	.	.	.
4eee	8cc# 8a	8e	8c#
.	8cc# 8a	8e	8r
4r	8cc# 8a	8e	8A
.	8cc# 8a	8e	8r
=35	=35	=35	=35
16gg#	8b 8g#	8e	4E
16ff#	.	.	.
16ee	8b 8g#	8e	.
16ff#	.	.	.
16gg#	8b 8g#	8e	2.r
16aa	.	.	.
16bb	8b 8g#	8e	.
16ccc#	.	.	.
16ddd	8b 8g#	8e	.
16ccc#	.	.	.
16bb	8b 8g#	8e	.
16aa	.	.	.
16gg#	8b 8g#	8e	.
16ff#	.	.	.
16ee	8b 8g#	8e	.
16dd	.	.	.
=36	=36	=36	=36
16cc#	8cc# 8a	8e	4r
16ee	.	.	.
16ff#	8cc# 8a	8e	.
16gg#	.	.	.
16aa	8cc# 8a	8e	8e
16bb	.	.	.
16ccc#	8cc# 8a	8e	8r
16ddd	.	.	.
4eee	8cc# 8a	8e	8c#
.	8cc# 8a	8e	8r
8r	8ee 8g	8d	8B
8ee	8ee 8g	8d	8r
=37	=37	=37	=37
[2ff#	8ee 8f#	8c#	2A#
.	8cc#	8e	.
.	8dd	8d	.
.	8ee	8c#	.
16ff#]	[2dd	[2B	2B
16gg#	.	.	.
16aa#	.	.	.
16bb	.	.	.
16ccc#	.	.	.
16ddd	.	.	.
16ccc#	.	.	.
16ddd	.	.	.
=38	=38	=38	=38
[2ee	8dd]	8B]	2G#
.	8b	8d	.
.	8cc#	8c#	.
.	8dd	8B	.
16ee]	[2cc#	[2A	2A
16ff#	.	.	.
16gg#	.	.	.
16aa	.	.	.
16bb	.	.	.
16ccc#	.	.	.
16bb	.	.	.
16ccc#	.	.	.
=39	=39	=39	=39
[2dd	8cc#]	8A]	2F#
.	8a	8c#	.
.	8b	8B	.
.	8cc#	8A	.
16dd]	4b	4e	4G#
16gg#	.	.	.
16bb	.	.	.
16aa	.	.	.
16gg#	8r	8r	8r
16ff#	.	.	.
16ee	8b	8e	8G#
16dd	.	.	.
=40	=40	=40	=40
16cc#	4a	4e	4A
16a	.	.	.
16b	.	.	.
16cc#	.	.	.
16dd	4r	4r	4r
16ee	.	.	.
16ff#	.	.	.
16gg#	.	.	.
16aa	4cc#	4e	4AA
16ee	.	.	.
16ff#	.	.	.
16gg#	.	.	.
16aa	4r	4r	4r
16bb	.	.	.
16ccc#	.	.	.
16ddd	.	.	.
=41	=41	=41	=41
4.eee	8a	8e	8C#
.	8a	8e	8C#
.	8a#	8g	8C#
8eee	8a#	8g	8C#
12ddd	8b	8f#	8D
12ccc#	.	.	.
.	4b	4f#	8D
12bb	.	.	.
12aa	.	.	8D
12gg#	.	.	.
.	8b	8a	8D
12ff#	.	.	.
=42	=42	=42	=42
2ee	8cc#	8a	8E
.	8dd	8b	8E
.	8ee	8cc#	8E
.	8ee	8cc#	8E
2bb	8dd	8b	8E
.	8b	8g#	8E
.	8b	8g#	8E
.	8g#	8d	8E
=43	=43	=43	=43
4aa	4a	4c#	4AA
2.r	4r	4r	2.r
.	8aa	8f#	.
.	8gg#	8e	.
.	8ff#	8d	.
.	8ee	8c#	.
=44	=44	=44	=44
1r	4ee	4c#	4r
.	4ee	4c#	4F#
.	4ee	4c#	4A#
.	4ff#	4d	4F#
=45	=45	=45	=45
2r	4ee	4c#	2B
.	4dd	4B	.
8eee	8ee	8e	4G#
8ddd	8dd	8b	.
8ccc#	8cc#	8a	4E
8bb	8b	8g#	.
=46	=46	=46	=46
4aa	4a	4a	4F#
4aa	4g	4e	4C#
4aa	4f#	4d	4D
4ddd	4b	4f#	4BB
=47	=47	=47	=47
4ccc#	4a	2e	2E
4bb	4g#	.	.
2r	8aa	8f#	2r
.	8gg#	8e	.
.	8ff#	8d	.
.	8ee	8c#	.
=48	=48	=48	=48
1r	4ee	4c#	4r
.	4ee	4c#	4F#
.	4ee	4c#	4A#
.	4ff#	4d	4F#
=49	=49	=49	=49
2r	4ee	4c#	2B
.	4dd	4B	.
8eee	8ee	8e	4G#
8ddd	8dd	8b	.
8ccc#	8cc#	8a	4E
8bb	8b	8g#	.
=50	=50	=50	=50
4aa	4a	4a	4F#
4ddd	4b	4f#	4D
4ccc#	4a	4e	2E
4bb	4g#	4d	.
=51	=51	=51	=51
2aa	4a	8e 8c#	4AA
.	.	8e 8c#	.
.	2.r	8e 8c#	4A
.	.	8e 8c#	.
8gg#	.	8e 8d	4e
16ff#	.	8e 8d	.
16ee	.	.	.
8ff#	.	8e 8d	4E
8gg#	.	8e 8d	.
=52	=52	=52	=52
8aa	2a	8e 8c#	4r
8ccc#	.	8e 8c#	.
4eee	.	8e 8c#	4A
.	.	8e 8c#	.
2r	8g#	8e 8d	4e
.	16f#	8e 8d	.
.	16e	.	.
.	8f#	8e 8d	4E
.	8g#	8e 8d	.
=53	=53	=53	=53
2aa	8a	8e 8c#	4r
.	8cc#	8e 8c#	.
.	4ee	8e 8c#	4A
.	.	8e 8c#	.
8gg#	2r	8e 8d	4e
16ff#	.	8e 8d	.
16ee	.	.	.
16ff#	.	8e 8d	4E
16aa	.	.	.
16gg#	.	8e 8d	.
16bb	.	.	.
=54	=54	=54	=54
8aa	2a	8e 8c#	4r
8ccc#	.	8e 8c#	.
4eee	.	8e 8c#	4A
.	.	8e 8c#	.
2r	8g#	8e 8d	4e
.	16f#	8e 8d	.
.	16e	.	.
.	16f#	8e 8d	4E
.	16a	.	.
.	16g#	8e 8d	.
.	16b	.	.
=55	=55	=55	=55
8eee	8a	4e 4c#	4C#
8ccc#	8cc#	.	.
8aa	8ee	4c#	4r
8aa	8ee	.	.
8eee	8a	4r	4C#
8ccc#	8cc#	.	.
8aa	8ee	4c#	4r
8aa	8ee	.	.
=56	=56	=56	=56
8ff#	8dd	4r	4D
8bb	8b	.	.
8ddd	8f#	4d	4r
8ddd	8f#	.	.
2ddd	8e	8G#	8B
.	8g#	8B	8G#
.	8b	8g#	8E
.	8b	8g#	8E
=57	=57	=57	=57
8ccc#	4a	4e	8A
16bb	.	.	8A
16aa	.	.	.
16aa	2a	4e	8C#
16gg#	.	.	.
16ff#	.	.	8C#
16ee	.	.	.
2bb	.	4f#	8D
.	.	.	8D
.	4g#	8.e	8E
.	.	.	8E
.	.	16d	.
=58	=58	=58	=58
2..aa	16r	8c#	[1A
.	16a	.	.
.	16g#	8e	.
.	16a	.	.
.	16b	8c#	.
.	16a	.	.
.	16g#	8e	.
.	16a	.	.
.	16r	8c#	.
.	16g	.	.
.	16f#	8e	.
.	16g	.	.
.	16a	8c#	.
.	16g	.	.
16bb	16f#	8e	.
16ccc#	16g	.	.
=59	=59	=59	=59
2..ddd	16r	8d	1A]
.	16f#	.	.
.	16e	8a	.
.	16f#	.	.
.	16g	8d	.
.	16f#	.	.
.	16e	8a	.
.	16f#	.	.
.	16r	8B	.
.	16g#	.	.
.	16f#	8e	.
.	16g#	.	.
.	16a	8B	.
.	16g#	.	.
16ccc#	16f#	8d	.
16bb	16g#	.	.
=60	=60	=60	=60
2..aa	8a	16r	[1AA
.	.	16c#	.
.	8ee	16B	.
.	.	16c#	.
.	8cc#	16d	.
.	.	16c#	.
.	8a	16B	.
.	.	16c#	.
.	8g	16r	.
.	.	16e	.
.	8e	16d	.
.	.	16e	.
.	8a	16f#	.
.	.	16e	.
16bb	8g	16d	.
16ccc#	.	16e	.
=61	=61	=61	=61
2..ddd	8f#	16r	1AA]
.	.	16d	.
.	8ff#	16c#	.
.	.	16d	.
.	8dd	16e	.
.	.	16d	.
.	8b	16c#	.
.	.	16d	.
.	8g#	16r	.
.	.	16B	.
.	8e	16A	.
.	.	16B	.
.	8b	16c#	.
.	.	16B	.
16ccc#	8g#	16A	.
16bb	.	16B	.
=62	=62	=62	=62
[1aa	4.a	8c#	4A
.	.	8e	.
.	.	8g	4r
.	16b	8e	.
.	16cc#	.	.
.	4.dd	8f#	4AA
.	.	8d	.
.	.	8B	4r
.	16cc#	8g#	.
.	16b	.	.
=63	=63	=63	=63
1aa]	4.a	8a	4A
.	.	8c#	.
.	.	8e	4r
.	16b	8g	.
.	16cc#	.	.
.	4.dd	8f#	4AA
.	.	8d	.
.	.	8B	4r
.	16cc#	8g#	.
.	16b	.	.
=64	=64	=64	=64
4aa	4a	4a	4A
4r	4r	4r	4r
4aa	4e	4c#	4A
4r	4r	4r	4r
=65	=65	=65	=65
2aa	2e	2c#	2A
2r	2r	2r	2r
=66	=66	=66	=66
2aa	8r	8r	2A
.	8e	8c	.
.	8ee	8cc	.
.	8ee	8cc	.
4.aa	8ee	8cc	2E
.	8a	8c	.
.	8cc	8e	.
8ccc	8g#	8e	.
=67	=67	=67	=67
8bb	8r	8r	2F
8aa	8a	8c	.
2aa	8cc	8a	.
.	8cc	8a	.
.	8cc	8a	2C
.	8e	8c	.
8r	8a	8e	.
8aa	8c	8A	.
=68	=68	=68	=68
2fff	8r	8r	2D
.	8B	8G#	.
.	8g#	8f	.
.	8g#	8f	.
4.gg#	8r	8r	4.BB
.	8g#	8d	.
.	8ff	8dd	.
8aa	8ff	8dd	8AA
=69	=69	=69	=69
8ff	8r	8r	2GG#
8ee	8d	8B	.
2ee	8dd	8b	.
.	8dd	8b	.
.	8cc	8a	4AA
.	8a	8e	.
8r	8e	8c	4r
8ee	8c	8A	.
=70	=70	=70	=70
4.eee	8r	4B	1r
.	8B	.	.
.	8f#	4r	.
8ddd#	8a	.	.
4ddd	8g#	4E	.
.	8a	.	.
8r	8b	4r	.
8ee	8g#	.	.
=71	=71	=71	=71
4.ddd	8r	4A	1r
.	8e	.	.
.	8g#	4r	.
8ccc#	8a	.	.
4ccc	8dd#	4A	.
.	8ee	.	.
8r	8b	4r	.
8ee	8cc	.	.
=72	=72	=72	=72
8ccc	8r	8r	2D
8bb	8f	8d	.
2aa	8f	8d	.
.	8f	8d	.
.	8e	8c	2E
.	8e	8c	.
4gg#	8d	8B	.
.	8d	8B	.
=73	=73	=73	=73
4.aa	4c	4.A	4A
.	8c#	.	4G
16bb	16d	16B	.
16ccc#	16e	16c#	.
4ddd	4A	4d	4F
8r	[4a	4e	4E
8ccc	.	.	.
=74	=74	=74	=74
8ccc	8a]	8f	2D
8bb	8dd	8f	.
2aa	8dd	8f	.
.	8dd	8f	.
.	8cc	8e	2E
.	8cc	8e	.
4gg#	8b	8d	.
.	8b	8d	.
=75	=75	=75	=75
4.aa	4.a	4c	4A
.	.	8c#	4G
16bb	16b	16d	.
16ccc#	16cc#	16e	.
4ddd	4dd	4A	4F
8r	8r	[4a	4E
8ccc	8cc	.	.
=76	=76	=76	=76
8ccc	8cc	8a]	2D
8bb	8b	8f	.
2aa	2a	8d	.
.	.	8f	.
.	.	8e	2E
.	.	8c	.
4gg#	4g#	8d	.
.	.	8B	.
=77	=77	=77	=77
1aa	4a	4A	4AA
.	4e 4c	4A	4A
.	4e 4c	4A	4A
.	4e 4c	4A	4A
=78	=78	=78	=78
1bb-	4r	4r	4r
.	4e 4c	4B-	4G
.	4e 4c	4B-	4G
.	4e 4c	4B-	4G
=79	=79	=79	=79
[1ccc	8c	8A	4F
.	8f	8c	.
.	8a	8f	2r
.	8a	8f	.
.	4.a	4.f	.
.	.	.	4AA
.	16cc	16a	.
.	16b-	16g	.
=80	=80	=80	=80
1ccc_	8a	8f	4C
.	8g	8e	.
.	8g	8e	4c
.	8g	8e	.
.	4g	4e	4G
.	8r	8r	4E
.	8c	8G	.
=81	=81	=81	=81
1ccc_	8e	8c	4C
.	8g	8e	.
.	8b-	8g	2r
.	8b-	8g	.
.	4.b-	4.g	.
.	.	.	4E
.	16dd	16b-	.
.	16cc	16a	.
=82	=82	=82	=82
4ccc]	8b-	8g	8F
.	8a	8f	8A
2r	8a	8f	8c
.	8a	8f	8c
.	8a	8f	4.c
.	8cc	8a	.
8r	8b-	8g	.
8cc	8g	8e	16B-
.	.	.	16G
=83	=83	=83	=83
8ff	4f	4c	4A
8ccc	.	.	.
8fff	4.r	4.r	4.r
8fff	.	.	.
4.fff	.	.	.
.	8f	8c	8AA
.	8f	8c	8AA
16ccc	8f	8c	8AA
16aa	.	.	.
=84	=84	=84	=84
8gg	4f	4d 4G	4BB-
8bb-	.	.	.
8ddd	4.r	4.r	4.r
8ddd	.	.	.
4.ddd	.	.	.
.	8g	8f 8d	8BB-
.	8g	8f 8d	8BB-
16bb-	8g	8f 8d	8BB-
16gg	.	.	.
=85	=85	=85	=85
8ff	4a	4f 4c	4C
8ccc	.	.	.
8aa	8r	8r	8r
8ff	8a 8f	8c	8C
8ee	4b- 4g	4c	4C
8bb-	.	.	.
8gg	8r	8r	8r
8ee	8b- 8g	8c	8C
=86	=86	=86	=86
8ff	4a 4f	4c	4F
8ee	.	.	.
8ff	2.r	2.r	2.r
8ff#	.	.	.
8gg	.	.	.
8ff#	.	.	.
8gg	.	.	.
8gg#	.	.	.
=87	=87	=87	=87
[1aa	8A	8F	4D
.	8d	8A	.
.	8f	8d	2r
.	8f	8d	.
.	4.f	4.d	.
.	.	.	4D
.	16a	16f	.
.	16g	16e	.
=88	=88	=88	=88
1aa]	8f	8d	4AA
.	8e	8c#	.
.	8e	8c#	4A
.	8e	8c#	.
.	4e	4c#	4E
.	8r	8r	4C#
.	8A	8E	.
=89	=89	=89	=89
1bb-	8c#	8E	4GG
.	8e	8c#	.
.	8g	8e	2r
.	8g	8e	.
.	4.g	4.e	.
.	.	.	4C#
.	16b-	8e	.
.	16a	.	.
=90	=90	=90	=90
[2aa	8g	4e-	8C
.	8f#	.	8A
.	8f#	8e-	8c
.	8f#	8e-	8c
4aa]	8f#	8e-	4.c
.	8cc	8a	.
8r	8b-	8g	.
8dd	8a	8f#	16d
.	.	.	16c
=91	=91	=91	=91
8gg	4g	4d	4B-
8bb-	.	.	.
8ddd	4.r	4.r	4.r
8ddd	.	.	.
4.ddd	.	.	.
.	8g	8d	8B-
.	8g	8d	8B-
8gg	8g	8d	8B-
=92	=92	=92	=92
8ff	4a 4f	4d	4A
8aa	.	.	.
8ddd	4.r	4.r	4.r
8ddd	.	.	.
4.ddd	.	.	.
.	8a 8f	8d	8A
.	8a 8f	8d	8A
8ff	8a 8f	8d	8A
=93	=93	=93	=93
8ff	2b-	[2d	2G
8ee	.	.	.
8ee	.	.	.
8ff	.	.	.
8ff	2b	8d]	2G#
8ee	.	8e	.
8ee	.	8e	.
8dd	.	8f	.
=94	=94	=94	=94
4cc#	4a	4e	1A
8r	4e	4c#	.
8aa	.	.	.
8aa	4f	4d	.
8aa	.	.	.
8aa	4g	4e	.
8aa	.	.	.
=95	=95	=95	=95
4.ddd	1f	1d	8r
.	.	.	8A
.	.	.	8A
16ccc	.	.	8A
16bb-	.	.	.
4aa	.	.	8A
.	.	.	8A
4gg#	.	.	8A
.	.	.	8A
=96	=96	=96	=96
4aa	4e	4c#	1A
8r	4e	4c#	.
8aa	.	.	.
8aa	4f	4d	.
8aa	.	.	.
8aa	4g	4e	.
8aa	.	.	.
=97	=97	=97	=97
4.ddd	1f	1d	8r
.	.	.	8A
.	.	.	8A
16ccc	.	.	8A
16bb-	.	.	.
4aa	.	.	8A
.	.	.	8A
4gg#	.	.	8A
.	.	.	8A
=98	=98	=98	=98
4aa	8e	8c#	8A
.	8c#	8C#	8C#
2.r	8d	8D	8D
.	8e	8E	8E
.	8f	8F	8F
.	8f#	8F#	8F#
.	8g	8G	8G
.	8g#	8G#	8G#
=99	=99	=99	=99
8r	4a	4A	4A
8cc#	.	.	.
8dd	2.r	2.r	2.r
8ee	.	.	.
8ff	.	.	.
8ff#	.	.	.
8gg	.	.	.
8gg#	.	.	.
=100	=100	=100	=100
2aa	8r	8r	4D
.	8f# 8A	8D	.
.	8f# 8A	8D	2.r
.	8f# 8A	8D	.
4..ff#	8f# 8A	8D	.
.	8f# 8A	8D	.
.	8f# 8A	8D	.
.	8f# 8A	8D	.
16gg	.	.	.
=101	=101	=101	=101
8bb	8r	8r	4D
8aa	8f# 8A	8D	.
2aa	8f# 8A	8D	2.r
.	8f# 8A	8D	.
.	8f# 8A	8D	.
.	8f# 8A	8D	.
8ff#	8f# 8A	8D	.
16ee	8f# 8A	8D	.
16dd	.	.	.
=102	=102	=102	=102
8dd	8r	8r	4D
16ee	8g 8B	8D	.
16ff#	.	.	.
16gg	8g 8B	8D	2.r
16aa	.	.	.
16bb	8g 8B	8D	.
16ccc#	.	.	.
16ddd	8g 8B	8D	.
16ccc#	.	.	.
16ddd	8g 8B	8D	.
16ccc#	.	.	.
16ddd	8g 8B	8D	.
16ccc#	.	.	.
16ddd	8g 8B	8D	.
16ccc#	.	.	.
=103	=103	=103	=103
8ddd	4f# 4A	4D	4D
16ccc#	.	.	.
16bb	.	.	.
4aa	2.r	8r	8r
.	.	8a	8A
2r	.	8a	8A
.	.	8f#	8F#
.	.	8f#	8F#
.	.	8d	8D
=104	=104	=104	=104
2aa	8r	4A	4AA
.	8A	.	.
.	8d	2.r	2.r
.	8f#	.	.
4.aa	8a	.	.
.	8g	.	.
.	8f#	.	.
8bb	8d	.	.
=105	=105	=105	=105
8dd	8f#	8r	4AA
8cc#	8e	8A	.
2cc#	2e	8c#	2.r
.	.	8e	.
.	.	8a	.
.	.	8g	.
4dd	4f#	8f#	.
.	.	8d	.
=106	=106	=106	=106
8ff#	8f#	8d	4A
8ee	8e	8c#	.
8gg	8g	8e	4A
8ff#	8f#	8d	.
8aa	8a	8f#	4A
8gg	8g	8e	.
8ff#	8f#	8d	4A
8ee	8e	8c#	.
=107	=107	=107	=107
8gg	8g	8e	4D
8ff#	8f#	8d	.
8bb	8b	8g	4.r
8aa	8a	8f#	.
4aa	4a	4f#	.
.	.	.	8A
4r	4r	4r	8F#
.	.	.	8D
=108	=108	=108	=108
2aa	8r	8r	4AA
.	8f#	8d	.
.	8g	8e	2.r
.	8a	8f#	.
4.aa	8g	8e	.
.	8f#	8d	.
.	8e	8c#	.
8bb	8f#	8d	.
=109	=109	=109	=109
8dd	8g	8e	4r
8cc#	8a	8f#	.
2ccc#	8g	8e	4A
.	8f#	8d	.
.	8g	8e	4A#
.	8e	8c#	.
[4ddd	8d	8B	4B
.	8b	8d	.
=110	=110	=110	=110
1ddd]	8dd	4G	4BB
.	8b	.	.
.	8g	4r	4r
.	8g	.	.
.	4.g	4d	4B
.	.	4c#	4A
.	16a	.	.
.	16f#	.	.
=111	=111	=111	=111
8ddd	8f#	4B	4G
8bb	8e	.	.
8gg	8e	4r	4r
8gg	8e	.	.
4.gg	4e	4dd	4BB
.	8r	4cc#	4AA
16aa	8d	.	.
16ff#	.	.	.
=112	=112	=112	=112
8ff#	8dd	4b	4GG
8ee	8b	.	.
8ee	8g	4r	4r
8ee	8g	.	.
4ee	4.g	4d	4B
8r	.	4c#	4A
8dd	16a	.	.
.	16f#	.	.
=113	=113	=113	=113
8ddd	8f#	4B	4G
8bb	8e	.	.
8gg	8e	4r	4r
8gg	8e	.	.
4.gg	4e	4dd	4BB
.	8r	4cc#	4AA
16aa	8d	.	.
16ff#	.	.	.
=114	=114	=114	=114
4ee	8d	8b	8GG
.	8b	8d	8G
[4bb	8b	8d	8G
.	8b	8d	8G
16bb]	8b	8e	8G
16aa	.	.	.
16gg	8b	8e	8G
16ff#	.	.	.
16ee	8b	8e	8G#
16dd	.	.	.
16cc#	8b	8e	8G#
16dd	.	.	.
=115	=115	=115	=115
16cc#	8a 8g	8e 8A	4A
16b	.	.	.
16a	8a 8g	8e 8A	.
16b	.	.	.
16cc#	8a 8g	8e 8A	2.r
16dd	.	.	.
16ee	8a 8g	8e 8A	.
16ff#	.	.	.
16gg	8a 8g	8e 8A	.
16ff#	.	.	.
16gg	8a 8g	8e 8A	.
16ff#	.	.	.
16gg	8a 8g	8e 8A	.
16ee	.	.	.
16dd	8a 8g	8e 8A	.
16cc#	.	.	.
=116	=116	=116	=116
16dd	8a 8f#	8d 8A	4r
16ee	.	.	.
16dd	8a 8f#	8d 8A	.
16cc#	.	.	.
16dd	8a 8f#	8d 8A	8A
16ee	.	.	.
16dd	8a 8f#	8d 8A	8r
16ee	.	.	.
4ff#	8a 8f#	8d 8A	8F#
.	8a 8f#	8d 8A	8r
4r	8a 8f#	8d 8A	8D
.	8a 8f#	8d 8A	8r
=117	=117	=117	=117
16dd	8a 8f#	8d 8A	4AA
16ee	.	.	.
16dd	8a 8f#	8d 8A	.
16cc#	.	.	.
16dd	8a 8f#	8d 8A	2.r
16ee	.	.	.
16ff#	8a 8f#	8d 8A	.
16gg	.	.	.
16aa	8a 8f#	8d 8A	.
16gg#	.	.	.
16aa	8a 8f#	8d 8A	.
16gg#	.	.	.
16aa	8a 8f#	8d 8A	.
16ff#	.	.	.
16ee	8a 8f#	8d 8A	.
16dd	.	.	.
=118	=118	=118	=118
16ee	8a 8c#	8e 8A	4r
16ff#	.	.	.
16ee	8a 8c#	8e 8A	.
16dd#	.	.	.
16ee	8a 8c#	8e 8A	8G
16ff#	.	.	.
16ee	8a 8c#	8e 8A	8r
16ff#	.	.	.
4gg	8a 8c#	8e 8A	8E
.	8a 8c#	8e 8A	8r
4r	8a 8c#	8e 8A	8C#
.	8a 8c#	8e 8A	8r
=119	=119	=119	=119
16gg	8g 8A	8e 8c#	4AA
16ff#	.	.	.
16ee	8g 8A	8e 8c#	.
16ff#	.	.	.
16gg	8g 8A	8e 8c#	2.r
16aa	.	.	.
16gg	8g 8A	8e 8c#	.
16aa	.	.	.
16bb	8g 8A	8e 8c#	.
16aa	.	.	.
16gg	8g 8A	8e 8c#	.
16aa	.	.	.
16bb	8g 8A	8e 8c#	.
16gg	.	.	.
16ff#	8g 8A	8e 8c#	.
16ee	.	.	.
=120	=120	=120	=120
16ff#	8f#	2d	8D
16gg	.	.	.
16ff#	4dd	.	8D
16ee	.	.	.
16ff#	.	.	8D
16dd	.	.	.
16ee	8dd	.	8D
16ff#	.	.	.
16gg	8cc#	2e	8D
16aa	.	.	.
16gg	4cc#	.	8D
16ff#	.	.	.
16gg	.	.	8D
16ee	.	.	.
16ff#	8cc#	.	8D
16gg	.	.	.
=121	=121	=121	=121
16aa	8cc	2f#	8D
16bb	.	.	.
16aa	4cc	.	8D
16gg	.	.	.
16aa	.	.	8D
16ff#	.	.	.
16gg	8cc	.	8D
16aa	.	.	.
16bb	8b	8g	8D
16gg	.	.	.
16aa	8b	8g	8D
16bb	.	.	.
16ccc#	8g	8e	8D
16aa	.	.	.
16bb	8g	8e	8D
16ccc#	.	.	.
=122	=122	=122	=122
16ddd	8f#	8d	8D
16ccc#	.	.	.
16bb	8r	8r	8r
16aa	.	.	.
16gg	8a	8d	8F#
16ff#	.	.	.
16ee	8r	8r	8r
16dd	.	.	.
16bb	8b	8d	8G
16aa	.	.	.
16gg	8r	8r	8r
16ff#	.	.	.
16ee	8dd	8g	8B
16dd	.	.	.
16cc#	8r	8r	8r
16b	.	.	.
=123	=123	=123	=123
16a	8dd	8a	8A
16aa	.	.	.
16gg#	8dd	8a	8A
16aa	.	.	.
8ff#	8dd	8a	8A
16ee	8dd	8a	8A
16dd	.	.	.
2ee	8dd	8a 8g	8AA
.	8dd	8a 8g	8AA
.	8cc#	8a 8g	8AA
.	8cc#	8a 8g	8AA
=124	=124	=124	=124
4dd	4dd	4a 4f#	4D
2.r	4r	4r	2.r
.	8dd	8B	.
.	8cc#	8A	.
.	8b	8G	.
.	8a	8F#	.
=125	=125	=125	=125
1r	4a	4F#	4r
.	4a	4F#	4BB
.	4a	4F#	4D#
.	4b	4G	4BB
=126	=126	=126	=126
2r	4a	4F#	2E
.	4g	4E	.
8aa	8a	8A	4C#
8gg	8g	8e	.
8ff#	8f#	8d	4AA
8ee	8e	8c#	.
=127	=127	=127	=127
4dd	4d	4d	4BB
4dd	4cc	4a	4F#
4dd	4b	4g	4G
4gg	4ee	4b	4E
=128	=128	=128	=128
4ff#	4dd	2a	2A
4ee	4cc#	.	.
8ddd	8b	2r	2r
8ccc#	8a	.	.
8bb	8g	.	.
8aa	8f#	.	.
=129	=129	=129	=129
8aa	8f#	4r	1r
8aa	8f#	.	.
8aa	8f#	4B	.
8aa	8f#	.	.
8aa	8f#	4d#	.
8aa	8f#	.	.
8aa	8f#	4B	.
8bb	8g	.	.
=130	=130	=130	=130
4aa	4f#	2e	2r
4gg	4e	.	.
2r	8aa	8e	4c#
.	8gg	8ee	.
.	8ff#	8dd	4A
.	8ee	8cc#	.
=131	=131	=131	=131
1r	8dd	8dd	8B
.	8dd	8cc	8F#
.	8dd	8b	8G
.	8gg	8ee	8E
.	4ff#	4dd	2A
.	4ee	4cc#	.
=132	=132	=132	=132
2dd	4dd	8dd	4d
.	.	8a 8f#	.
.	2.r	8a 8f#	4D
.	.	8a 8f#	.
8cc#	.	8a 8g	4A
16b	.	8a 8g	.
16a	.	.	.
8b	.	8a 8g	4AA
8cc#	.	8a 8g	.
=133	=133	=133	=133
8dd	2d	8a 8f#	4r
8ff#	.	8a 8f#	.
4aa	.	8a 8f#	4D
.	.	8a 8f#	.
2r	8c#	8a 8g	4A
.	16B	8a 8g	.
.	16A	.	.
.	8B	8a 8g	4AA
.	8c#	8a 8g	.
=134	=134	=134	=134
2dd	8d	8a 8f#	4r
.	8f#	8a 8f#	.
.	4a	8a 8f#	4D
.	.	8a 8f#	.
8cc#	2r	8a 8g	4A
16b	.	8a 8g	.
16a	.	.	.
16b	.	8a 8g	4AA
16dd	.	.	.
16cc#	.	8a 8g	.
16ee	.	.	.
=135	=135	=135	=135
8dd	2d	8a 8f#	4r
8ff#	.	8a 8f#	.
4aa	.	8a 8f#	4D
.	.	8a 8f#	.
2r	8c#	8a 8g	4A
.	16B	8a 8g	.
.	16A	.	.
.	16B	8a 8g	4AA
.	16d	.	.
.	16c#	8a 8g	.
.	16e	.	.
=136	=136	=136	=136
8aa	8d	4a 4f#	4D
8ff#	8f#	.	.
8dd	8a	4f#	4r
8dd	8a	.	.
8aa	8d	4r	4F#
8ff#	8f#	.	.
8dd	8a	4f#	4r
8dd	8a	.	.
=137	=137	=137	=137
8dd	8b	4r	4G
8bb	8dd	.	.
8ddd	8b	4g	4r
8ddd	8b	.	.
4.ddd	4.b	4.d	8GG
.	.	.	8AA
.	.	.	8BB
16ccc#	16a	8e	8C#
16bb	16g	.	.
=138	=138	=138	=138
16aa	8f#	4A	8D
16bb	.	.	.
16aa	8a	.	8D
16bb	.	.	.
16aa	2dd	4a	8F#
16ff#	.	.	.
16ee	.	.	8F#
16dd	.	.	.
2ee	.	4b	8G
.	.	.	8G
.	4cc#	8.a	8A
.	.	.	8A
.	.	16g	.
=139	=139	=139	=139
2..dd	16r	8f#	[1D
.	16dd	.	.
.	16cc#	8a	.
.	16dd	.	.
.	16ee	8f#	.
.	16dd	.	.
.	16cc#	8a	.
.	16dd	.	.
.	16r	8f#	.
.	16cc	.	.
.	16b	8a	.
.	16cc	.	.
.	16dd	8f#	.
.	16cc	.	.
16ee	16b	8a	.
16ff#	16cc	.	.
=140	=140	=140	=140
2..gg	16r	8g	1D]
.	16b	.	.
.	16a	8d	.
.	16b	.	.
.	16a	8B	.
.	16g	.	.
.	16f#	8d	.
.	16g	.	.
.	16r	8c#	.
.	16e	.	.
.	16d	8G	.
.	16e	.	.
.	16d	8E	.
.	16c#	.	.
16ff#	16B	8G	.
16ee	16c#	.	.
=141	=141	=141	=141
[1ddd	2..d	16r	[1DD
.	.	16F#	.
.	.	16E	.
.	.	16F#	.
.	.	16G	.
.	.	16F#	.
.	.	16E	.
.	.	16F#	.
.	.	16r	.
.	.	16A	.
.	.	16G	.
.	.	16A	.
.	.	16B	.
.	.	16A	.
.	16e	16G	.
.	16f#	16A	.
=142	=142	=142	=142
1ddd]	2..g	16r	1DD]
.	.	16B	.
.	.	16A	.
.	.	16B	.
.	.	16A	.
.	.	16G	.
.	.	16F#	.
.	.	16G	.
.	.	16r	.
.	.	16E	.
.	.	16D	.
.	.	16E	.
.	.	16F#	.
.	.	16E	.
.	16f#	16D	.
.	16e	16C#	.
=143	=143	=143	=143
[1d	8d	4.D	4d
.	8f#	.	.
.	8a	.	4r
.	8cc	16E	.
.	.	16F#	.
.	8b	4.G	4D
.	8g	.	.
.	8e	.	4r
.	8cc#	16F#	.
.	.	16E	.
=144	=144	=144	=144
1d]	8dd	4.D	4d
.	8f#	.	.
.	8a	.	4r
.	8cc	16E	.
.	.	16F#	.
.	8b	4.G	4D
.	8g	.	.
.	8e	.	4r
.	8cc#	16F#	.
.	.	16E	.
=145	=145	=145	=145
4d	4dd	4D	4d
4r	4r	4r	4r
4f#	4d	4A	4A
4r	4r	4r	4r
=146	=146	=146	=146
4a	4A	4d	4F#
2.r	2r	2r	2.r
.	8r	8r	.
.	8A	8A	.
=147	=147	=147	=147
1r	8d	8A	4r
.	8f#	8d	.
.	8a	8f#	4d
.	8a	8f#	.
.	4.a	4.f#	4D
.	.	.	4d
.	16g	16e	.
.	16f#	16d	.
=148	=148	=148	=148
2r	8a#	4d	4G
.	8b	.	.
.	8b 8d	4e	4G
.	8b 8d	.	.
4r	4b 4d	4e	4G#
8r	8r	8r	8r
8ddd	8e	8B	8G#
=149	=149	=149	=149
8ddd	8f#	8A	4A
8aa	8a	8f#	.
8ff#	8f#	8d	8r
8ff#	8f#	8d	8AA
4.ff#	4.f#	4.d	8D
.	.	.	8F#
.	.	.	8A
16gg	16g	16e	8A
16ee	16e	16c#	.
=150	=150	=150	=150
8ee	8c#	8G	4D
8dd	8d	8F#	.
4dd	8r	8r	8r
.	8d	8D	8D
2r	8c#	8C#	8C#
.	8d	8D	8D
.	8e	8E	8E
.	8f#	8F#	8F#
=151	=151	=151	=151
16r	4d	4D	4D
16a	.	.	.
16b	.	.	.
16cc#	.	.	.
16dd	8.aa 8.a	8.f#	4d
16ee	.	.	.
16ff#	.	.	.
16gg	16aa 16a	16f#	.
16aa	4aa 4a	4f#	4A
16bb	.	.	.
16ccc#	.	.	.
16ddd	.	.	.
8ccc#	8gg 8a	8e	4AA
16bb	16ff#	16d	.
16ccc#	16gg	16e	.
=152	=152	=152	=152
4ddd	4ff# 4a 4d	4d	4D
2.r	8r	8r	8r
.	8d	8D	8D
.	8c#	8C#	8C#
.	8d	8D	8D
.	8e	8E	8E
.	8f#	8F#	8F#
=153	=153	=153	=153
16r	4d	4D	4D
16a	.	.	.
16b	.	.	.
16cc#	.	.	.
16dd	8.aa 8.a	8.f#	4d
16ee	.	.	.
16ff#	.	.	.
16gg	16aa 16a	16f#	.
16aa	4aa 4a	4f#	4A
16bb	.	.	.
16ccc#	.	.	.
16ddd	.	.	.
8ccc#	8gg 8a	8e	4AA
16bb	16ff#	16d	.
16ccc#	16gg	16e	.
=154	=154	=154	=154
4ddd	4ff# 4a 4d	4d	4D
8.d	8.d	8.D	8.D
16d	16d	16D	16D
4d	4d	4D	4D
4r	4r	4r	4r
==	==	==	==
*-	*-	*-	*-
!!!RWG1: This file contains only pitch and duration data.
!!!RWG2: Transposing instruments are not transposed.
!!!RWG3: Spines may have incompatible meters.
!!!RWG4: Durations of rests and tied notes may be interpreted.
!!!RWG: Key is interpreted using the Humdrum key tool.
!!!AFT: stage1
!!!END: 1997/04/15
!!format changes:
!!content changes:
!!public access: complete
!!!KEY: 3935383620
!!!EMD: Converted from MuseData to Humdrum Dec 16, 2000, by Andreas Kornstaedt using muse2kern.
